!!!COM: Igor (Fyodorovich) Stravinsky
!!!OTL: [T399_Str-w57p25-26m189]
**kern	**text	**kern	**text	**kern	**text	**kern	**text
*part4	*part4	*part3	*part3	*part2	*part2	*part1	*part1
*staff4	*staff4	*staff3	*staff3	*staff2	*staff2	*staff1	*staff1
*I"BASS 2	*	*I"BASS 1	*	*I"TENOR 2	*	*I"TENOR 1	*
*I'B.	*	*I'B.	*	*I'T.	*	*I'T.	*
!!pagebreak:original
*clefF4	*	*clefF4	*	*clefG2	*	*clefG2	*
*	*	*	*	*Trd0c0	*	*Trd0c0	*
*k[]	*	*k[]	*	*k[]	*	*k[]	*
*C:	*	*C:	*	*C:	*	*C:	*
*M4/4	*	*M4/4	*	*M4/4	*	*M4/4	*
=1	=1	=1	=1	=1	=1	=1	=1
!	!	!	!	!	!	!LO:TX:t=[half]=56	!
!	!	!LO:TX:a:t=22	!	!	!	!LO:TX:a:B:t=Canon a4, duplex	!
1D#X	Re-	1r	.	1r	.	1r	.
=2	=2	=2	=2	=2	=2	=2	=2
*M6/4	*	*M6/4	*	*M6/4	*	*M6/4	*
!	!	!LO:TX:a:t=32	!	!	!	!	!
1E	-cor-	2%3r	.	2%3r	.	2%3r	.
(2AA	-da-	.	.	.	.	.	.
=3	=3	=3	=3	=3	=3	=3	=3
2FF)	.	2F	Re-	2r	.	2%3r	.
2BB-X	-re	2F	-cor-	1b-X	Re-	.	.
[2GG	pau-	(4F	-da-	.	.	.	.
.	.	4E)	.	.	.	.	.
=4	=4	=4	=4	=4	=4	=4	=4
2GG]	.	2E	-re	1bn	-cor-	2dd-X	Re-
(1C	-per-	(2F	pau-	.	.	2dd-	-cor-
.	.	2E)	.	(2e	-da-	(4dd-	-da-
.	.	.	.	.	.	4cc)	.
=5	=5	=5	=5	=5	=5	=5	=5
2A-X)	.	(2E	-per-	2c)	.	2cc	-re
2C-X	-ta-	2F)	.	2f	-re	(2dd	pau-
[2Dn	-tis	2F	-ta-	[2d	pau-	2cc)	.
=6	=6	=6	=6	=6	=6	=6	=6
4D]	.	(4A	-tis	2d]	.	(2cc	-per-
4r	.	2E)	.	.	.	.	.
1r	.	.	.	(1g	-per-	2dd)	.
.	.	2.E	et	.	.	.	.
.	.	.	.	.	.	2dd	-ta-
!!linebreak:original
=7	=7	=7	=7	=7	=7	=7	=7
1r	.	(4A	trans-	2ee-X)	.	4ff	-tis,
.	.	4E)	.	.	.	2cc	.
.	.	4E	-gres-	2g-X	-ta-	.	.
.	.	2E	-sio-	.	.	2.cc	et
2C#X	et	.	.	[2an	-tis,	.	.
.	.	4E	-nis	.	.	.	.
=8	=8	=8	=8	=8	=8	=8	=8
4F#X	trans-	(4F#X	me-	4a]	.	(4ffn	trans-
4E-X	-gres-	4G)	.	4r	.	4cc)	.
2Dn	-sio-	2G	-ae,	1r	.	4cc	-gres-
.	.	.	.	.	.	2cc	-sio-
[2AAn	-nis	2C	ab-	.	.	.	.
.	.	.	.	.	.	4cc	-nis
=9	=9	=9	=9	=9	=9	=9	=9
2AAn]	.	2A-X	-sin-	1r	.	(4ddn	me-
.	.	.	.	.	.	4ee-X)	.
2C#X	me-	4D-X	-thi-	.	.	2ee-	-ae,
.	.	2B-X	-i	.	.	.	.
[2GG#X	-ae,	.	.	2a-X	et	2a-X	ab-
.	.	4E-X	et	.	.	.	.
=10	=10	=10	=10	=10	=10	=10	=10
2GG#]	.	2Bn	fel-	4dd-X	trans-	2een	-sin-
.	.	.	.	4b-X	-gres-	.	.
2BB#X	ab-	2Dn	-lis.	2an	-sio-	4an	-thi-
.	.	.	.	.	.	2ff#X	-i
2F#X	-sin-	2r	.	[2en	-nis	.	.
.	.	.	.	.	.	4bn	et
!!linebreak:original
=11	=11	=11	=11	=11	=11	=11	=11
1AA#X	-thi-	2%3r	.	2en]	.	2gg	fel-
.	.	.	.	2g#X	me-	2b-X	-lis.
2GGn	-i	.	.	[2d#X	-ae,	2r	.
=12	=12	=12	=12	=12	=12	=12	=12
!	!	!	!	!	!	!LO:TX:a:t=32	!
1En	et	2%3r	.	2d#]	.	2%3r	.
.	.	.	.	2f#X	ab-	.	.
[2Fn	fel-	.	.	2cc#X	-sin-	.	.
=13	=13	=13	=13	=13	=13	=13	=13
2F]	.	2%3r	.	1fn	-thi-	2%3r	.
[1Cn	-lis.	.	.	.	.	.	.
.	.	.	.	2dn	-i	.	.
=14	=14	=14	=14	=14	=14	=14	=14
!	!	!	!	!	!	!LO:TX:a:t=62	!
1C_	.	2%3r	.	1bn	et	2%3r	.
2C_	.	.	.	[2ccn	fel-	.	.
=15	=15	=15	=15	=15	=15	=15	=15
2C_	.	2%3r	.	2ccn]	.	2%3r	.
1C]	.	.	.	[2gn	-lis.	.	.
.	.	.	.	2gn]	.	.	.
=	=	=	=	=	=	=	=
*-	*-	*-	*-	*-	*-	*-	*-
!!!system-decoration: [(s1,s2,s3,s4)]
